SVG-Icons/Technical/Grafana/grafana-enterprise-icon.svg

<svg width="16" height="15" viewBox="0 0 16 15" fill="none" xmlns="http://www.w3.org/2000/svg">
<path d="M8.27787 0H8.1874H8.07754H7.97415H7.88368C3.52827 0 0 3.35656 0 7.5C0 11.6434 3.52827 15 7.88368 15C7.9483 15 8.01292 15 8.07754 15C8.14217 15 8.20679 15 8.27141 15C8.69144 14.9877 9.11147 14.9508 9.52504 14.877C13.8094 14.1332 16.6462 10.2234 15.8578 6.14754C15.1922 2.64344 12.0194 0.0737705 8.27787 0ZM9.60905 1.19877L9.73829 1.22951L9.93861 1.27869L10.0679 1.31557L10.2746 1.37705L10.3974 1.41393L10.6171 1.49385L10.7141 1.53074C10.9273 1.6168 11.1405 1.70902 11.3409 1.81967L11.4249 1.86885C11.496 1.90574 11.567 1.94262 11.6317 1.98566L11.7351 2.04713C11.7932 2.08402 11.8578 2.1209 11.916 2.16393L12.0258 2.23156L12.2003 2.35451L12.3037 2.43443L12.4717 2.56352L12.5751 2.64344L12.7367 2.78484L12.8271 2.86475L12.8595 2.89549C12.2585 3.20287 11.6317 3.44877 10.9725 3.6332C10.6107 2.76025 10.126 1.93648 9.53796 1.18648L9.60905 1.19877ZM5.5315 6.98361C5.57028 6.27049 5.69952 5.55738 5.9063 4.86885C6.62359 5.0041 7.3538 5.07172 8.08401 5.07172C8.81422 5.07172 9.54443 5.0041 10.2617 4.86885C10.4685 5.55738 10.5913 6.26434 10.6365 6.98361H5.5315ZM10.6236 8.01639C10.5848 8.72951 10.4556 9.44262 10.2488 10.1311C8.81422 9.8668 7.33441 9.8668 5.89984 10.1311C5.69305 9.44262 5.57027 8.73566 5.52504 8.01639H10.6236V8.01639ZM8.07754 1.1127C8.84653 1.93033 9.46042 2.86475 9.89338 3.8791C8.69144 4.08811 7.45719 4.08811 6.25525 3.8791C6.70113 2.86475 7.31502 1.93033 8.07754 1.1127ZM3.34087 2.8709L3.43134 2.79098L3.59289 2.64344L3.69628 2.56352L3.85784 2.43443L3.96123 2.35451L4.1357 2.2377L4.24556 2.16393L4.42649 2.05328L4.52989 1.98566L4.73667 1.86885L4.82068 1.81967C5.02746 1.72131 5.23425 1.63525 5.4475 1.54918L5.54443 1.5123L5.76414 1.43238L5.88045 1.39549L6.08724 1.33402L6.21648 1.29713L6.4168 1.24795L6.5525 1.21721L6.61712 1.20492C6.02908 1.96107 5.55089 2.78484 5.19548 3.65164C4.54281 3.46721 3.90953 3.22131 3.30856 2.91393L3.34087 2.8709ZM2.58481 3.70082C3.29564 4.08811 4.05816 4.39549 4.84653 4.62295C4.62036 5.39139 4.48465 6.18443 4.43942 6.98361H1.30533C1.40872 5.79713 1.8546 4.65984 2.58481 3.70082ZM2.58481 11.2992C1.84814 10.3402 1.40872 9.20287 1.30533 8.01639H4.43942C4.47819 8.81557 4.61389 9.60861 4.84653 10.377C4.05816 10.6045 3.3021 10.9119 2.58481 11.2992ZM6.5525 13.7951L6.4168 13.7643L6.21648 13.7152L6.08724 13.6783L5.88045 13.6168L5.75767 13.5799L5.53796 13.5L5.44103 13.4508C5.22779 13.377 5.01454 13.291 4.81422 13.1926L4.73021 13.1434C4.65913 13.1066 4.59451 13.0697 4.52343 13.0266L4.42003 12.9652C4.36187 12.9283 4.29725 12.8914 4.2391 12.8484L4.12924 12.7807L3.95477 12.6578L3.85137 12.5779L3.68336 12.4488L3.57997 12.3689L3.41842 12.2275L3.32795 12.1475L3.29564 12.1168C3.89661 11.8094 4.52343 11.5635 5.18255 11.3791C5.54443 12.252 6.02262 13.0758 6.6042 13.8258L6.5525 13.7951ZM8.07754 13.8873C7.30856 13.0697 6.69467 12.1352 6.26171 11.1209C7.46365 10.9119 8.6979 10.9119 9.89984 11.1209C9.46042 12.1352 8.84653 13.0697 8.07754 13.8873ZM12.8207 12.1291L12.7302 12.209L12.5687 12.3504L12.4653 12.4303L12.3037 12.5594L12.2003 12.6393L12.0258 12.7561L11.916 12.8299L11.7351 12.9406L11.6317 13.0082L11.4249 13.125L11.3473 13.1865C11.1405 13.2848 10.9338 13.3709 10.7205 13.4447L10.6236 13.4816L10.4039 13.5615L10.2811 13.5984L10.0743 13.6598L9.94507 13.6967L9.74475 13.7459L9.60905 13.7766H9.54443C10.1325 13.0205 10.6107 12.1967 10.9661 11.3299C11.6187 11.5143 12.252 11.7602 12.853 12.0676L12.8207 12.1291ZM13.5703 11.2992C12.8595 10.9119 12.0969 10.6045 11.3086 10.377C11.5347 9.60861 11.6704 8.81557 11.7157 8.01639H14.8498C14.7528 9.20287 14.3069 10.3402 13.5703 11.2992ZM11.7157 6.98361C11.6769 6.18443 11.5412 5.39139 11.3086 4.62295C12.0969 4.39549 12.853 4.08811 13.5703 3.70082C14.3069 4.65984 14.7464 5.79713 14.8498 6.98361H11.7157Z" fill="url(#paint0_linear_17977_1964)"/>
<defs>
<linearGradient id="paint0_linear_17977_1964" x1="7.99845" y1="17.9332" x2="7.99845" y2="3.99941" gradientUnits="userSpaceOnUse">
<stop stop-color="#FCED1C"/>
<stop offset="0.9455" stop-color="#F05A29"/>
</linearGradient>
</defs>
</svg>

<svg xmlns="http://www.w3.org/2000/svg" fill="none" viewBox="0 0 16 15"><path fill="url(#a)" d="M8.278 0h-.394C3.528 0 0 3.357 0 7.5S3.528 15 7.884 15h.387c.42-.012.84-.05 1.254-.123 4.284-.744 7.121-4.654 6.333-8.73C15.192 2.644 12.019.075 8.278 0Zm1.331 1.199.13.03.2.05.129.037.207.061.122.037.22.08.097.037c.213.086.426.178.627.289l.084.049c.071.037.142.074.207.117l.103.061c.058.037.123.074.181.117l.11.068.174.123.104.08.168.129.103.08.162.14.09.08.033.031c-.601.308-1.228.554-1.887.738a10.467 10.467 0 0 0-1.435-2.447l.071.013ZM5.532 6.984a9.092 9.092 0 0 1 .374-2.115 11.762 11.762 0 0 0 4.356 0c.207.688.33 1.395.374 2.115H5.532Zm5.092 1.032a9.09 9.09 0 0 1-.375 2.115 12.026 12.026 0 0 0-4.35 0 9.38 9.38 0 0 1-.374-2.115h5.099ZM8.078 1.113a9.46 9.46 0 0 1 1.815 2.766 10.633 10.633 0 0 1-3.638 0 9.886 9.886 0 0 1 1.823-2.766ZM3.34 2.87l.09-.08.162-.148.103-.08.162-.129.103-.08.175-.116.11-.074.18-.11.104-.068.207-.117.084-.05c.206-.098.413-.184.627-.27l.096-.037.22-.08.116-.037.207-.061.13-.037.2-.05.136-.03.064-.012a10.445 10.445 0 0 0-1.422 2.447 10.287 10.287 0 0 1-1.886-.738l.032-.043Zm-.756.83c.71.387 1.473.694 2.262.922a10.457 10.457 0 0 0-.408 2.36H1.305a6.332 6.332 0 0 1 1.28-3.282Zm0 7.598a6.278 6.278 0 0 1-1.28-3.283H4.44c.04.8.175 1.593.408 2.361-.789.227-1.545.535-2.262.922Zm3.968 2.496-.136-.03-.2-.05-.13-.037-.207-.061-.122-.037-.22-.08-.097-.05a5.542 5.542 0 0 1-.627-.257l-.084-.05a3.428 3.428 0 0 1-.207-.116l-.103-.062c-.058-.037-.123-.074-.18-.117l-.11-.067-.175-.123-.104-.08-.168-.13-.103-.08-.162-.14-.09-.08-.032-.031a10.106 10.106 0 0 1 1.887-.738c.361.873.84 1.697 1.421 2.447l-.051-.03Zm1.525.092a9.46 9.46 0 0 1-1.816-2.766 10.633 10.633 0 0 1 3.638 0 9.612 9.612 0 0 1-1.822 2.766Zm4.743-1.758-.09.08-.162.141-.104.08-.161.13-.104.08-.174.116-.11.074-.18.11-.104.068-.207.117-.078.062a6.1 6.1 0 0 1-.627.258l-.096.037-.22.08-.123.036-.207.062-.129.037-.2.049-.136.03h-.065a10.442 10.442 0 0 0 1.422-2.446c.653.184 1.286.43 1.887.738l-.032.061Zm.75-.83a11.253 11.253 0 0 0-2.262-.922c.226-.768.361-1.561.407-2.36h3.134a6.225 6.225 0 0 1-1.28 3.282Zm-1.855-4.315a9.786 9.786 0 0 0-.407-2.361 11.408 11.408 0 0 0 2.261-.922 6.278 6.278 0 0 1 1.28 3.283h-3.134Z"/><defs><linearGradient id="a" x1="7.998" x2="7.998" y1="17.933" y2="3.999" gradientUnits="userSpaceOnUse"><stop stop-color="#FCED1C"/><stop offset=".946" stop-color="#F05A29"/></linearGradient></defs></svg>
